X:247
T: Humour of Newtown
N: O'Farrell's Pocket Companion v.3 (Sky ed. p.117)
N: "Irish"
M: 6/8
L: 1/8
Q: 320
R: jig
K: Edor
z| d2B cde| d2B BAF| d2B cde| ABA ABc|
d2B cde| fdB BAF| d2B AFD| EFE E2 :|
P:2
G| FAF A2B| ABG FED| AFA A2B| AFE E2G|
FAF A2B| ABG FEF| DFA d2B| AFE E2 :|
P:3
A| dfd cec| BcB BAF| dfd cec| fdB B2c|
dfd cec| BcB Bcd| FEF DdB| AFE E2 :|
P:4
F| DFF AFF| AFd FEF| DFF AFd| AFE E2F|
DFF AFF| AFd FEF| DFA B2d| AFE E2 :|
